usr/share/icons/biglinux-icons-material-dark/22/actions/system-lock-screen.svg

<svg xmlns="http://www.w3.org/2000/svg" viewBox="0 0 22 22">
<defs id="defs3051">
<style id="current-color-scheme" type="text/css">
.ColorScheme-Text{color:#dedede}
</style>
</defs>
<path d="M11 3c-4.432 0-8 3.568-8 8s3.568 8 8 8 8-3.568 8-8-3.568-8-8-8m0 1c3.878 0 7 3.122 7 7s-3.122 7-7 7-7-3.122-7-7 3.122-7 7-7m0 2a2 2 0 0 0-2 2v2H7v5h8v-5h-2V8a2 2 0 0 0-2-2m0 1a1 1 0 0 1 1 1v2h-2V8a1 1 0 0 1 1-1m-3 4h6v3H8z" class="ColorScheme-Text" style="fill:currentColor;fill-opacity:1;stroke:none"/>
</svg>

<svg xmlns="http://www.w3.org/2000/svg" viewBox="0 0 22 22">
  <defs id="defs3051">
    <style type="text/css" id="current-color-scheme">
      .ColorScheme-Text {
        color:#dedede;
      }
      </style>
  </defs>
    <path
       style="fill:currentColor;fill-opacity:1;stroke:none" 
       d="M 11 3 C 6.568 3 3 6.568 3 11 C 3 15.432 6.568 19 11 19 C 15.432 19 19 15.432 19 11 C 19 6.568 15.432 3 11 3 z M 11 4 C 14.878 4 18 7.122 18 11 C 18 14.878 14.878 18 11 18 C 7.122 18 4 14.878 4 11 C 4 7.122 7.122 4 11 4 z M 11 6 A 2.0000021 2.0000014 0 0 0 9 8 L 9 10 L 7 10 L 7 15 L 15 15 L 15 10 L 13 10 L 13 8 A 2.0000021 2.0000014 0 0 0 11 6 z M 11 7 A 1 1 0 0 1 12 8 L 12 10 L 10 10 L 10 8 A 1 1 0 0 1 11 7 z M 8 11 L 9 11 L 10 11 L 12 11 L 13 11 L 14 11 L 14 14 L 8 14 L 8 11 z "
     class="ColorScheme-Text"
     />
</svg>
